src/apple.svg

<svg viewBox="0 0 24 25" fill="none" xmlns="http://www.w3.org/2000/svg"><g clip-path="url(#apple_svg__clip0_337_603)"><path d="M18.5506 12.7512C18.5843 16.3835 21.737 17.5922 21.7719 17.6076C21.7452 17.6928 21.2682 19.33 20.1109 21.0212C19.1105 22.4834 18.0723 23.9401 16.4367 23.9703C14.8296 23.9999 14.3129 23.0173 12.4755 23.0173C10.6387 23.0173 10.0645 23.9401 8.54322 23.9999C6.96449 24.0597 5.76226 22.4189 4.75362 20.9621C2.69249 17.9822 1.11736 12.5417 3.23236 8.86929C4.28305 7.04554 6.16071 5.89067 8.19874 5.86106C9.74901 5.83149 11.2122 6.90403 12.16 6.90403C13.1071 6.90403 14.8853 5.6142 16.7546 5.80363C17.5372 5.8362 19.7339 6.11974 21.1444 8.18443C21.0308 8.25489 18.5233 9.7146 18.5506 12.7512ZM15.5302 3.8322C16.3684 2.81764 16.9325 1.40529 16.7786 0C15.5705 0.0485571 14.1096 0.805071 13.243 1.81907C12.4664 2.71701 11.7862 4.15423 11.9697 5.5317C13.3164 5.63589 14.692 4.8474 15.5302 3.8322Z" fill="black"/></g><defs><clipPath id="apple_svg__clip0_337_603"><rect width="19.5432" height="24.0015" fill="white" transform="translate(2.22858)"/></clipPath></defs></svg>

<svg viewBox="0 0 24 25" fill="none" xmlns="http://www.w3.org/2000/svg"><g clip-path="url(#apple_svg__clip0_337_603)"><path d="M18.55 12.751c.034 3.633 3.187 4.841 3.222 4.857-.027.085-.504 1.722-1.661 3.413-1 1.462-2.039 2.92-3.674 2.95-1.607.029-2.124-.954-3.962-.954-1.836 0-2.41.923-3.932.983-1.579.06-2.78-1.581-3.79-3.038-2.06-2.98-3.636-8.42-1.52-12.093 1.05-1.823 2.928-2.978 4.966-3.008 1.55-.03 3.013 1.043 3.961 1.043.947 0 2.725-1.29 4.595-1.1.782.032 2.979.316 4.39 2.38-.114.07-2.622 1.53-2.594 4.567Zm-3.02-8.919C16.368 2.818 16.933 1.405 16.78 0c-1.209.049-2.67.805-3.536 1.82-.777.897-1.457 2.334-1.273 3.712 1.346.104 2.722-.685 3.56-1.7Z" fill="black"/></g><defs><clipPath id="apple_svg__clip0_337_603"><path fill="white" transform="translate(2.229)" d="M0 0h19.543v24.002H0z"/></clipPath></defs></svg>
